X:1
T: Alex R. Findlay
C:J. Murdoch Henderson
R:Reel
I:speed 232
Q:232
K:C
M:4/4
L:1/8
|:EF|Gc Bd cg ec|GE CE Gc Bc|Ac Fc fc ec|Bg eB G2 EF|
Gc Bd cg ec|GE CE Gc Bc|Aa fd BG ^FG|e2c2 c2:|
|:GF|E1/2E1/2E ec dc ed|cE ed cG EC|Dd dB cA ^FD|GB dg BG AB|
cB AG A1/2B1/2c fe|dc BA Ba gf|ec GE FA ((3dcB)|c2C2 C2:|
